X: 305
T: Shier sheng
%%abc-version 2.0
%%abcx-abcm2ps-target-version 5.9.1 (29 Sep 2008)
%%abc-creator hum2abc beta
%%abcx-conversion-date 2013/10/02 07:52:29
%%abc-edited-by Helmut Schaffrath
%%humdrum-veritas 678493975
%%humdrum-veritas-data 447726769
%%continueall 1
%%barnumbers 0
L: 1/8
M: 2/4
K: A
e de2 [I:setbarnb 1]| 
zf2e | 
B2e2 | 
c BA2 | 
A Be2 | 
c BA2 | 
B2A F | 
E4 | 
A eA2 | 
zB2e | 
e2A2 | 
A FE2 | 
A2B2 | 
A FE2 | 
A FA2 | 
G FE2 |]  



